resources/icons/16px/app-header.svg

<?xml version="1.0" encoding="UTF-8"?>
<svg width="16px" height="16px" viewBox="0 0 16 16" version="1.1" xmlns="http://www.w3.org/2000/svg" xmlns:xlink="http://www.w3.org/1999/xlink">
    <title>app-header</title>
    <g id="app-header" stroke="none" stroke-width="1" fill="none" fill-rule="evenodd">
        <path d="M15,0 C15.5522847,0 16,0.44771525 16,1 L16,15 C16,15.5522847 15.5522847,16 15,16 L1,16 C0.44771525,16 0,15.5522847 0,15 L0,1 C0,0.44771525 0.44771525,0 1,0 L15,0 Z M6,4 C6,3.44771525 5.55228475,3 5,3 C4.48716416,3 4.06449284,3.38604019 4.00672773,3.88337887 L4,4 L4,12 C4,12.5522847 4.44771525,13 5,13 C5.51283584,13 5.93550716,12.6139598 5.99327227,12.1166211 L6,12 L6,9 L10,9 L10,12 C10,12.5522847 10.4477153,13 11,13 C11.5128358,13 11.9355072,12.6139598 11.9932723,12.1166211 L12,12 L12,4 C12,3.44771525 11.5522847,3 11,3 C10.4871642,3 10.0644928,3.38604019 10.0067277,3.88337887 L10,4 L10,7 L6,7 L6,4 Z" id="Shape" fill="#000000" fill-rule="nonzero"></path>
    </g>
</svg>

<svg xmlns="http://www.w3.org/2000/svg" viewBox="0 0 16 16">
  <path d="M15 0a1 1 0 0 1 1 1v14a1 1 0 0 1-1 1H1a1 1 0 0 1-1-1V1a1 1 0 0 1 1-1zM6 4a1 1 0 0 0-1.993-.117L4 4v8a1 1 0 0 0 1.993.117L6 12V9h4v3a1 1 0 0 0 1.993.117L12 12V4a1 1 0 0 0-1.993-.117L10 4v3H6z"/>
</svg>
